gtk-icons/Papirus-GTK/22x22/panel/psensor_normal.svg

<?xml version="1.0" encoding="UTF-8" standalone="no"?>
<!-- Created with Inkscape (http://www.inkscape.org/) -->
<svg id="svg7384" xmlns:rdf="http://www.w3.org/1999/02/22-rdf-syntax-ns#" style="enable-background:new" xmlns="http://www.w3.org/2000/svg" xmlns:osb="http://www.openswatchbook.org/uri/2009/osb" height="22" width="22" version="1.1" xmlns:cc="http://creativecommons.org/ns#" xmlns:dc="http://purl.org/dc/elements/1.1/">
 <metadata id="metadata90">
  <rdf:RDF>
   <cc:Work rdf:about="">
    <dc:format>image/svg+xml</dc:format>
    <dc:type rdf:resource="http://purl.org/dc/dcmitype/StillImage"/>
    <dc:title>Paper Symbolic Icon Theme</dc:title>
   </cc:Work>
  </rdf:RDF>
 </metadata>
 <title id="title8473">Paper Symbolic Icon Theme</title>
 <defs id="defs7386">
  <filter id="filter7554" style="color-interpolation-filters:sRGB">
   <feBlend id="feBlend7556" in2="BackgroundImage" mode="darken"/>
  </filter>
 </defs>
 <g id="layer9" transform="translate(-545 401.01)">
  <path id="path4148" d="m11 3c-1.662 0-3 1.338-3 3v6.361a4 4 0 0 0 -1 2.639 4 4 0 0 0 4 4 4 4 0 0 0 4 -4 4 4 0 0 0 -1 -2.639v-6.361c0-1.662-1.338-3-3-3zm0 2c0.554 0 1 0.446 1 1v7.27a2 2 0 0 1 1 1.73 2 2 0 0 1 -2 2 2 2 0 0 1 -2 -2 2 2 0 0 1 1 -1.729v-7.271c0-0.554 0.446-1 1-1z" transform="translate(545 -401.01)" fill="#fff"/>
 </g>
</svg>

<?xml version="1.0" encoding="UTF-8" standalone="no"?>
<!-- Created with Inkscape (http://www.inkscape.org/) -->

<svg
   xmlns:osb="http://www.openswatchbook.org/uri/2009/osb"
   xmlns:dc="http://purl.org/dc/elements/1.1/"
   xmlns:cc="http://creativecommons.org/ns#"
   xmlns:rdf="http://www.w3.org/1999/02/22-rdf-syntax-ns#"
   xmlns:svg="http://www.w3.org/2000/svg"
   xmlns="http://www.w3.org/2000/svg"
   xmlns:sodipodi="http://sodipodi.sourceforge.net/DTD/sodipodi-0.dtd"
   xmlns:inkscape="http://www.inkscape.org/namespaces/inkscape"
   sodipodi:docname="psensor_normal.svg"
   inkscape:export-filename="/home/sam/source-symbolic.png"
   inkscape:export-xdpi="270"
   inkscape:export-ydpi="270"
   height="22"
   id="svg7384"
   style="enable-background:new"
   version="1.1"
   inkscape:version="0.91 r"
   width="22">
  <sodipodi:namedview
     inkscape:bbox-nodes="false"
     inkscape:bbox-paths="false"
     bordercolor="#666666"
     borderlayer="false"
     borderopacity="1"
     inkscape:current-layer="layer9"
     inkscape:cx="7.804829"
     inkscape:cy="7.8094222"
     gridtolerance="10"
     inkscape:guide-bbox="true"
     guidetolerance="10"
     id="namedview88"
     inkscape:object-nodes="true"
     inkscape:object-paths="true"
     objecttolerance="10"
     pagecolor="#f7f7f7"
     inkscape:pageopacity="1"
     inkscape:pageshadow="2"
     showborder="true"
     showgrid="false"
     showguides="true"
     inkscape:showpageshadow="false"
     inkscape:snap-bbox="true"
     inkscape:snap-bbox-edge-midpoints="false"
     inkscape:snap-bbox-midpoints="false"
     inkscape:snap-center="false"
     inkscape:snap-global="false"
     inkscape:snap-grids="true"
     inkscape:snap-intersection-paths="true"
     inkscape:snap-midpoints="true"
     inkscape:snap-nodes="true"
     inkscape:snap-object-midpoints="true"
     inkscape:snap-others="true"
     inkscape:snap-page="false"
     inkscape:snap-smooth-nodes="true"
     inkscape:snap-to-guides="true"
     inkscape:window-height="876"
     inkscape:window-maximized="1"
     inkscape:window-width="1535"
     inkscape:window-x="65"
     inkscape:window-y="24"
     inkscape:zoom="19.88">
    <inkscape:grid
       color="#000000"
       dotted="false"
       empcolor="#0800ff"
       empopacity="0.4627451"
       empspacing="4"
       enabled="true"
       id="grid4866"
       opacity="0.16470588"
       originx="-304.00021"
       originy="-612.01034"
       snapvisiblegridlinesonly="true"
       spacingx="0.25px"
       spacingy="0.25px"
       type="xygrid"
       visible="true" />
  </sodipodi:namedview>
  <metadata
     id="metadata90">
    <rdf:RDF>
      <cc:Work
         rdf:about="">
        <dc:format>image/svg+xml</dc:format>
        <dc:type
           rdf:resource="http://purl.org/dc/dcmitype/StillImage" />
        <dc:title>Paper Symbolic Icon Theme</dc:title>
      </cc:Work>
    </rdf:RDF>
  </metadata>
  <title
     id="title8473">Paper Symbolic Icon Theme</title>
  <defs
     id="defs7386">
    <linearGradient
       id="linearGradient5606"
       osb:paint="solid">
      <stop
         id="stop5608"
         offset="0"
         style="stop-color:#000000;stop-opacity:1;" />
    </linearGradient>
    <filter
       inkscape:collect="always"
       id="filter7554"
       style="color-interpolation-filters:sRGB">
      <feBlend
         inkscape:collect="always"
         id="feBlend7556"
         in2="BackgroundImage"
         mode="darken" />
    </filter>
  </defs>
  <g
     inkscape:groupmode="layer"
     id="layer9"
     inkscape:label="status"
     style="display:inline"
     transform="translate(-545.00041,401.01034)">
    <path
       style="opacity:1;fill:#ffffff;fill-opacity:1;stroke:none;stroke-width:2;stroke-linecap:butt;stroke-linejoin:miter;stroke-miterlimit:4;stroke-dasharray:none;stroke-opacity:1"
       d="M 11 3 C 9.338 3 8 4.338 8 6 L 8 12.361328 A 4 4 0 0 0 7 15 A 4 4 0 0 0 11 19 A 4 4 0 0 0 15 15 A 4 4 0 0 0 14 12.361328 L 14 6 C 14 4.338 12.662 3 11 3 z M 11 5 C 11.554 5 12 5.446 12 6 L 12 13.269531 A 2 2 0 0 1 13 15 A 2 2 0 0 1 11 17 A 2 2 0 0 1 9 15 A 2 2 0 0 1 10 13.271484 L 10 6 C 10 5.446 10.446 5 11 5 z "
       transform="translate(545.00041,-401.01034)"
       id="path4148" />
  </g>
  <g
     inkscape:groupmode="layer"
     id="layer10"
     inkscape:label="devices"
     style="display:inline;filter:url(#filter7554)"
     transform="translate(-545.00041,401.01034)" />
  <g
     inkscape:groupmode="layer"
     id="layer1"
     inkscape:label="places"
     style="display:inline"
     transform="translate(-304.00021,-215.98966)" />
  <g
     inkscape:groupmode="layer"
     id="layer14"
     inkscape:label="mimetypes"
     style="display:inline"
     transform="translate(-545.00041,401.01034)" />
  <g
     inkscape:groupmode="layer"
     id="layer15"
     inkscape:label="emblems"
     style="display:inline"
     transform="translate(-545.00041,401.01034)" />
  <g
     inkscape:groupmode="layer"
     id="g71291"
     inkscape:label="emotes"
     style="display:inline"
     transform="translate(-545.00041,401.01034)" />
  <g
     inkscape:groupmode="layer"
     id="layer2"
     inkscape:label="categories"
     style="display:inline"
     transform="translate(-304.00021,-65.98966)" />
  <g
     inkscape:groupmode="layer"
     id="g6058"
     inkscape:label="apps"
     style="display:inline"
     transform="translate(-304.00021,-65.98966)" />
  <g
     inkscape:groupmode="layer"
     id="layer12"
     inkscape:label="actions"
     style="display:inline"
     transform="translate(-545.00041,401.01034)" />
</svg>
